X:476
T:My Lily
T:Mo Shuil ad Dheigh
T:Of Thee I Dream
S:Aly Bain (from a TV programme)
Z:Nigel Gatherer
R:air
M:3/4
L:1/4
K:A
E | A2 A | A2 (3A/B/c/ | A>GF | E2 c/d/ | c2B/A/ | c2B/A/ | Bcd | e2 e/^e/|
f2 e/d/ | ce>c | d2F | E2 F/G/ | A2F | E/D/ C c/d/ | c2B | A2 ||
a/g/ | a2a/g/ a2 (3a/b/c/ | ag>f | e2d | e2d | c2 B/A/ | Bc>d | e3 |
f2 e/d/ | ce>c | d2F | [E2A2e2] f/g/ | a2 g/f/ | ec>d | c2B | A2 |]
<end>
<start>
